openframe-frontend-core/src/components/icons-v2/brand-logos/facebook.svg

<svg width="24" height="24" viewBox="0 0 24 24" fill="none" xmlns="http://www.w3.org/2000/svg">
<path d="M9.62451 10.7495C9.62451 11.3708 9.12083 11.8745 8.49951 11.8745H6.125V13.625H8.49951C9.12083 13.625 9.62451 14.1287 9.62451 14.75V20.8745H12.3755V14.75C12.3755 14.1287 12.8792 13.625 13.5005 13.625H16.1226L16.5605 11.8745H13.5005C12.8792 11.8745 12.3755 11.3708 12.3755 10.7495V7.74951C12.3758 6.57629 13.3263 5.62575 14.4995 5.62549H17.8745V3.125H14.4995C11.8073 3.12526 9.62451 5.30777 9.62451 8V10.7495ZM20.1245 6.24951C20.1245 7.14697 19.3975 7.87549 18.5 7.87549H14.6255V9.62451H17.3589C18.3501 9.62451 19.094 10.4983 18.9717 11.4526L18.9365 11.6445L18.1865 14.6445C18.0056 15.3678 17.3545 15.875 16.6089 15.875H14.6255V21.5C14.6255 22.3975 13.897 23.1245 12.9995 23.1245H9.00049C8.10303 23.1245 7.37451 22.3975 7.37451 21.5V15.875H5.49951C4.60244 15.8747 3.87526 15.1476 3.875 14.2505V11.2505C3.875 10.3532 4.60227 9.62478 5.49951 9.62451H7.37451V8C7.37451 4.06513 10.5647 0.875264 14.4995 0.875H18.5C19.3973 0.875001 20.1242 1.60227 20.1245 2.49951V6.24951Z" fill="#888888"/>
</svg>

<svg xmlns="http://www.w3.org/2000/svg" width="24" height="24" fill="none" viewBox="0 0 24 24">
  <path fill="#888" d="M9.625 10.75c0 .62-.504 1.124-1.125 1.124H6.125v1.751H8.5c.62 0 1.125.504 1.125 1.125v6.125h2.75V14.75c0-.621.504-1.125 1.126-1.125h2.622l.438-1.75H13.5a1.125 1.125 0 0 1-1.125-1.126v-3c0-1.173.95-2.123 2.123-2.124h3.376v-2.5h-3.376A4.875 4.875 0 0 0 9.625 8v2.75Zm10.5-4.5c0 .897-.727 1.625-1.625 1.625h-3.874v1.75h2.733c.991 0 1.735.873 1.613 1.828l-.036.192-.75 3a1.626 1.626 0 0 1-1.577 1.23h-1.984V21.5c0 .898-.728 1.625-1.626 1.625H9A1.625 1.625 0 0 1 7.375 21.5v-5.625H5.5a1.625 1.625 0 0 1-1.625-1.624v-3c0-.898.727-1.626 1.625-1.626h1.875V8A7.125 7.125 0 0 1 14.499.875H18.5c.897 0 1.624.727 1.625 1.625v3.75Z"/>
</svg>
